X: 1912
T: The Sandal
P: Lady Heathcote's Reel
C:R. Mackintosh
R:Reel (8x48) ABABAB
B:RSCDS 19-12
Z:Anselm Lingnau <anselm@strathspey.org>
M:2/2
L:1/8
K:D
A|"D"d2a2 fgag|fadf "A"ceAc|"D"d2 af "Em"gbeg|"D"fa"A7"ge "D"fddA
  "D"d2a2 fgag|fadf "A"ceAc|"D"d2 af "Em"gbeg|"D"fa"A7"ge "D"fdd||
A|"D"FDdF "Em"GEed|"D"cAag "D"fddA|FDdF "Em"GEed|"D"cABc dddA|
  "D"FDdF "Em"GEed|"D"cAag "D"fddA|FADF "G"Bdgb|"A7"afge "D"fdd|]
%%center Book19/1912-Sandal-AL.abc

%%sep 1 1 500
%%sep 1 1 500

